html/assets/images/dynamic/icon5.svg

<svg width="90" height="81" viewBox="0 0 90 81" fill="none" xmlns="http://www.w3.org/2000/svg">
<g id="Group">
<path id="Vector" d="M19.3416 40.5374C19.705 37.1704 20.5659 33.9756 21.8285 30.9722" stroke="#00999A" stroke-width="4" stroke-linejoin="round"/>
<path id="Vector_2" d="M20.47 53.9096C19.7621 51.4609 19.3221 48.8975 19.1882 46.2766" stroke="#00999A" stroke-width="4" stroke-linejoin="round"/>
<path id="Vector_3" d="M24.8698 25.3097C31.0298 16.0314 41.5898 9.90967 53.5654 9.90967C72.5811 9.90967 88.0002 25.3288 88.0002 44.3445C88.0002 63.3601 72.5811 78.7792 53.5654 78.7792C40.0402 78.7792 28.3515 70.9931 22.708 59.6488" stroke="#00999A" stroke-width="4" stroke-linejoin="round"/>
<path id="Vector_4" d="M53.5653 50.1028C56.7349 50.1028 59.3044 47.5333 59.3044 44.3636C59.3044 41.194 56.7349 38.6245 53.5653 38.6245C50.3957 38.6245 47.8262 41.194 47.8262 44.3636C47.8262 47.5333 50.3957 50.1028 53.5653 50.1028Z" stroke="#00999A" stroke-width="4" stroke-linejoin="round"/>
<path id="Vector_5" d="M47.8262 2.27661H59.3044" stroke="#00999A" stroke-width="4" stroke-linejoin="round"/>
<path id="Vector_6" d="M53.5652 9.92879V2.27661" stroke="#00999A" stroke-width="4" stroke-linejoin="round"/>
<path id="Vector_7" d="M80.3478 11.8418L74.6086 17.5809" stroke="#00999A" stroke-width="4" stroke-linejoin="round"/>
<path id="Vector_8" d="M76.5217 8.01562L84.1739 15.6678" stroke="#00999A" stroke-width="4" stroke-linejoin="round"/>
<path id="Vector_9" d="M57.3914 40.5375L72.6957 25.2332" stroke="#00999A" stroke-width="4" stroke-linejoin="round"/>
<path id="Vector_10" d="M49.7391 48.1897L44 53.9288" stroke="#00999A" stroke-width="4" stroke-linejoin="round"/>
<path id="Vector_11" d="M11.4783 25.2332H40.1739" stroke="#00999A" stroke-width="4" stroke-linejoin="round"/>
<path id="Vector_12" d="M0 40.5376H28.6957" stroke="#00999A" stroke-width="4" stroke-linejoin="round"/>
<path id="Vector_13" d="M7.6521 53.9287H34.4347" stroke="#00999A" stroke-width="4" stroke-linejoin="round"/>
</g>
</svg>

<svg width="90" height="81" fill="none" xmlns="http://www.w3.org/2000/svg"><g stroke="#00999A" stroke-width="4" stroke-linejoin="round"><path d="M19.342 40.537a34.031 34.031 0 012.486-9.565M20.47 53.91a33.693 33.693 0 01-1.282-7.633M24.87 25.31c6.16-9.279 16.72-15.4 28.695-15.4C72.581 9.91 88 25.329 88 44.344 88 63.36 72.581 78.78 53.565 78.78c-13.525 0-25.213-7.786-30.857-19.13"/><path d="M53.565 50.103a5.74 5.74 0 100-11.478 5.74 5.74 0 000 11.478zM47.826 2.277h11.478m-5.739 7.652V2.277m26.783 9.565l-5.74 5.739m1.914-9.565l7.652 7.652m-26.783 24.87l15.305-15.305M49.74 48.19L44 53.929M11.478 25.233h28.696M0 40.538h28.696M7.652 53.929h26.783"/></g></svg>
